img/rectangle-4-1.svg

<svg fill="none" height="112" viewBox="0 0 77 112" width="77" xmlns="http://www.w3.org/2000/svg"><path d="m56.4055 94.2862-.0003-.0001-.9966-.1282.1788.988v.0004l.0001.0001.0001.0006.0008.0046.0045.0273c.0041.0257.0103.066.0177.12.015.1081.035.2706.0536.4799.0374.4188.0694 1.0226.0454 1.7489-.048 1.457-.32 3.3823-1.2018 5.2953-.8772 1.904-2.3637 3.811-4.8725 5.249-2.5159 1.442-6.104 2.439-11.2183 2.439h-.0874-.0876-.0877-.088-.0881-.0883-.0886-.0886-.0889-.0891-.0892-.0894-.0895-.0898-.0899-.0901-.0903-.0904-.0906-.0907-.0909-.0911-.0913-.0914-.0915-.0917-.0919-.092-.0922-.0923-.0925-.0926-.0927-.0929-.0931-.0932-.0933-.0935-.0936-.0937-.0939-.094-.0942-.0942-.0944-.0946-.0946-.0948-.0949-.095-.0952-.0952-.0954-.0955-.0956-.0958-.0958-.096-.096-.0962-.0963-.0963-.0965-.0966-.0967-.0968-.0969-.097-.097-.0972-.0973-.0973-.0975-.0975-.0976-.0977-.0978-.0979-.0979-.098-.0981-.0982-.0983-.0983-.0984-.0985-.0985-.0987-.0986-.0988-.0988-.0989-.0989-.099-.099-.0992-.0991-.0992-.0993-.0993-.0994-.0994-.0995-.0995-.0996-.0996-.0996-.0997-.0997-.0998-.0998-.0998-.0999-.0998-.1-.0999-.1-.1-.1-.1001-.1001-.1001-.1001-.1001-.1002-.1001-.1002-.1002-.1002-.1002-.1002-.1002-.1002-.1003-.1002-.1002-.1002-.1003-.1002-.1002-.1002-.1002-.1002-.1002-.1002-.1001-.1002-.1001-.1001-.1001-.1-.1001-.1-.1-.1-.0999-.0999-.0999-.0999-.0998-.0998-.0997-.0997-.0997-.0996-.0996-.0995-.0995-.0995-.0994-.0993-.0994-.0992-.0992-.0992-.099-.0991-.0989-.099-.0988-.0988-.0987-.0987-.0986-.0985-.0984-.0984-.0983-.0983-.0981-.0981-.098-.0979-.0978-.0978-.0977-.0976-.0975-.0974-.0973-.0972-.0971-.0971-.0969-.0969-.0967-.0967-.0965-.0965-.0963-.0963-.0961-.096-.0959-.0958-.0957-.0956-.0954-.0954-.0952-.0951-.095-.0949-.0947-.0946-.0945-.0943-.0943-.0941-.0939-.0939-.0937-.0935-.0934-.0933-.0932-.093-.0928-.0927-.0926-.0924-.0923-.0921-.0919-.0918-.0917-.0915-.0913-.0912-.091-.0909-.0907-.0905-.0904-.0902-.09-.0899-.0896-.0896-.0893-.0891-.089-.0888-.0887-.0884-.0883-.088-.0879-.0877-.0875-.0874-.0871-.0869-.0868-.0865-.0864-.0861-.086-.0857-.0855-.0854-.0851-.0849-.0848-.0845-.0843-.0841-.0838-.0837-.0834-.0832-.083-.0828-.0826-.0823-.0821-.0819-.0816-.0814-.08124-.08095-.08073-.08048-.08025-.08001-.07977-.07953-.07929-.07904-.0788-.07855-.07831-.07805-.0778-.07755-.0773-.07704-.07678-.07653-.07627-.076-.07575-.07548-.07521-.07495-.07468-.07441-.07414-.07387-.07359-.07332-.07304-.07277-.07248-.07221-.07192-.07164-.07135-.07107-.07078-.07049-.0702-.06991-.06962-.06932-.06902-.06873-.06842-.06813-.06782-.06753-.06721-.06691-.06661-.06629-.06598-.06568-.06535-.06505-.06473-.06441-.06409-.06377-.06345-.06313-.0628-.06248-.06215-.06182-.06149-.06115-.06083-.06049-.06016-.05982-.05948-.05914-.05879-.05846-.05811-.05777-.05741-.05707-.05672-.05637-.05602-.05566-.05531-.05495-.05459-.05423-.05387-.0535-.05315-.05277-.05242-.05204-.05167-.0513-.05093-.05056-.05018-.0498-.04942-.04905-.04866-.04828-.0479-.04752-.04712-.04674-.04635-.04596-.04556-.04517-.04478-.04438-.04398-.04358-.04319-.04278-.04237-.04197-.04157-.04115-.04075-.04034-.03992-.03951-.0391-.03868-.03826-.03785-.03742-.037-.03658-.03615-.03572-.0353-.03487-.03444-.03401-.03357-.03314-.0327-.03227-.03183-.03138-.03095-.0305-.03006-.02961-.02916-.02871-.02827-.02781-.02736-.02691-.00305v-108.89607h75.0498v.00453.04464.04589.04713.04837.04961.05085.05207.05329.05451.05572.05694.05813.05933.06053.06172.0629.06408.06526.06643.06759.06875.06991.07107.0722.07336.07448.07562.07675.07787.07899.08011.08121.08232.08341.08451.0856.08669.08777.08884.08991.09098.09205.0931.09415.09519.09625.09727.09832.09934.10036.10139.10239.10341.10442.10541.10641.10739.10839.10937.11034.11131.11228.11325.1142.11515.11611.11704.11799.11891.11985.12077.1217.1226.12352.12442.12533.12622.12711.12799.12888.12976.13063.1315.13236.13321.13408.13492.13576.1366.1374.1383.1391.1399.1407.1416.1423.1432.1439.1448.1455.1463.1471.1478.1487.1494.1501.1509.1517.1524.1531.1539.1546.1553.1561.1567.1575.1582.1589.1596.1602.161.1616.1624.163.1636.1644.165.1656.1663.167.1676.1682.1688.1695.1701.1707.1714.1719.1725.1732.1737.1743.1749.1755.1761.1766.1772.1777.1784.1788.1794.18.1805.181.1815.1821.1826.1831.1836.1841.1846.1851.1856.186.1866.187.1875.188.1884.1889.1893.1898.1902.1907.1911.1915.192.1923.1928.1932.1936.194.1943.1948.1952.1955.1959.1963.1967.197.1974.1977.1981.1984.1987.1991.1994.1998.2.2004.2007.2009.2013.2016.2019.2021.2025.2027.203.2032.2036.2037.2041.2042.2046.2047.205.2052.2055.2056.2059.2061.2063.2065.2067.2069.207.2073.2074.2076.2078.2079.2081.2083.2083.2086.2087.2088.2089.2091.2092.2093.2094.2095.2096.2097.2098.2099.21.2101.2101.2102.2103.2103.2104.2104.2105.2105.2105.2106.2106.2106.2106.2107.2107.2106.2107.2106.2107.2106.2106.2106.2105.2105.2105.2104.2104.2103.2102.2102.2102.21.21.2099.2098.2097.2096.2095.2094.2093.2092.209.209.2088.2086.2086.2083.2083.208.208.2077.2076.2074.2073.207.2069.2067.2064.2063.2061.2059.2056.2054.2052.205.2047.2045.2043.204.2037.2035.2033.2029.2027.2024.2022.2018.2016.2012.201.2007.2003.2.1997.1994.1991.1987.1984.198.1977.1974.197.1966.1963.1958.1955.1952.1947.1944.1939.1936.1931.1928.1923.1919.1915.1911.1906.1902.1897.1893.1889.1883.188.1874.187.1865.1861.1855.1851.1846.184.1836.183.1826.182.1815.181.1804.1799.1794.1788.1783.1777.1771.1766.176.1755.1748.1743.1737.1731.1725.1718.1713.1707.17.1695.1688.1681.1676.1669.1662.1656.1649.1643.1636.163.1623.1616.1609.1602.1595.1588.1582.1574.1567.156.1553.1545.1538.1531.1523.1516.1509.1501.1493.1486.1477.1471.1462.1455.1446.1439.1431.1423.1415.1406.1399.139.1382.1374.1365.1357.1349.134.1331.1323.1314.1306.1297.1288.1279.127.1262.1252.1244.1234.1226.1216.1207.1198.1188.1179.117.116.1151.1141.1132.1122.1112.1103.1092.1084.1073.1063.1053.1044.1033c0 4.2332-1.2304 7.1814-3.0205 9.2521-1.8005 2.0827-4.2208 3.3387-6.6938 4.08-2.4729.7414-4.9596.956-6.8383.9825-.9369.0133-1.7165-.0203-2.2598-.057-.2714-.0183-.4835-.0374-.6261-.0517-.0713-.0071-.1253-.013-.1606-.0171l-.0388-.0046-.0087-.0011z" stroke="#fff500" stroke-width="1.47156"/></svg>

<svg width="77" height="112" viewBox="0 0 77 112" fill="none" xmlns="http://www.w3.org/2000/svg">
<path d="M56.4055 94.2862L56.4052 94.2861L56.4052 94.2861L55.4086 94.1579L55.5874 95.1459L55.5874 95.1463L55.5875 95.1464L55.5876 95.147L55.5884 95.1516L55.5929 95.1789C55.597 95.2046 55.6032 95.2449 55.6106 95.2989C55.6256 95.407 55.6456 95.5695 55.6642 95.7788C55.7016 96.1976 55.7336 96.8014 55.7096 97.5277C55.6616 98.9847 55.3896 100.91 54.5078 102.823C53.6306 104.727 52.1441 106.634 49.6353 108.072C47.1194 109.514 43.5313 110.511 38.417 110.511H38.3296H38.242H38.1543H38.0663H37.9782H37.8899H37.8013H37.7127H37.6238H37.5347H37.4455H37.3561H37.2666H37.1768H37.0869H36.9968H36.9065H36.8161H36.7255H36.6348H36.5439H36.4528H36.3615H36.2701H36.1786H36.0869H35.995H35.903H35.8108H35.7185H35.626H35.5334H35.4407H35.3478H35.2547H35.1615H35.0682H34.9747H34.8811H34.7874H34.6935H34.5995H34.5053H34.4111H34.3167H34.2221H34.1275H34.0327H33.9378H33.8428H33.7476H33.6524H33.557H33.4615H33.3659H33.2701H33.1743H33.0783H32.9823H32.8861H32.7898H32.6935H32.597H32.5004H32.4037H32.3069H32.21H32.113H32.016H31.9188H31.8215H31.7242H31.6267H31.5292H31.4316H31.3339H31.2361H31.1382H31.0403H30.9423H30.8442H30.746H30.6477H30.5494H30.451H30.3525H30.254H30.1553H30.0567H29.9579H29.8591H29.7602H29.6613H29.5623H29.4633H29.3641H29.265H29.1658H29.0665H28.9672H28.8678H28.7684H28.6689H28.5694H28.4698H28.3702H28.2706H28.1709H28.0712H27.9714H27.8716H27.7718H27.6719H27.5721H27.4721H27.3722H27.2722H27.1722H27.0722H26.9721H26.872H26.7719H26.6718H26.5717H26.4715H26.3714H26.2712H26.171H26.0708H25.9706H25.8704H25.7702H25.67H25.5697H25.4695H25.3693H25.2691H25.1688H25.0686H24.9684H24.8682H24.768H24.6678H24.5676H24.4674H24.3673H24.2671H24.167H24.0669H23.9668H23.8668H23.7667H23.6667H23.5667H23.4667H23.3668H23.2669H23.167H23.0671H22.9673H22.8675H22.7678H22.6681H22.5684H22.4688H22.3692H22.2697H22.1702H22.0707H21.9713H21.872H21.7726H21.6734H21.5742H21.475H21.376H21.2769H21.178H21.079H20.9802H20.8814H20.7827H20.684H20.5854H20.4869H20.3885H20.2901H20.1918H20.0935H19.9954H19.8973H19.7993H19.7014H19.6036H19.5058H19.4081H19.3105H19.213H19.1156H19.0183H18.9211H18.824H18.7269H18.63H18.5331H18.4364H18.3397H18.2432H18.1467H18.0504H17.9541H17.858H17.762H17.6661H17.5703H17.4746H17.379H17.2836H17.1882H17.093H16.9979H16.9029H16.808H16.7133H16.6187H16.5242H16.4299H16.3356H16.2415H16.1476H16.0537H15.96H15.8665H15.7731H15.6798H15.5866H15.4936H15.4008H15.3081H15.2155H15.1231H15.0308H14.9387H14.8468H14.755H14.6633H14.5718H14.4805H14.3893H14.2983H14.2074H14.1167H14.0262H13.9358H13.8456H13.7556H13.6657H13.5761H13.4865H13.3972H13.3081H13.2191H13.1303H13.0416H12.9532H12.8649H12.7769H12.689H12.6013H12.5138H12.4264H12.3393H12.2524H12.1656H12.0791H11.9927H11.9066H11.8206H11.7349H11.6494H11.564H11.4789H11.394H11.3092H11.2247H11.1404H11.0563H10.9725H10.8888H10.8054H10.7222H10.6392H10.5564H10.4738H10.3915H10.3094H10.2275H10.1459H10.0645H9.98326H9.90231H9.82158H9.7411H9.66085H9.58084H9.50107H9.42154H9.34225H9.26321H9.18441H9.10586H9.02755H8.9495H8.8717H8.79415H8.71685H8.63981H8.56303H8.4865H8.41023H8.33423H8.25848H8.183H8.10779H8.03284H7.95816H7.88375H7.80961H7.73574H7.66215H7.58883H7.51579H7.44302H7.37054H7.29833H7.22641H7.15477H7.08342H7.01235H6.94157H6.87108H6.80088H6.73097H6.66135H6.59203H6.52301H6.45428H6.38586H6.31773H6.24991H6.18238H6.11517H6.04826H5.98165H5.91536H5.84938H5.7837H5.71835H5.6533H5.58857H5.52416H5.46007H5.3963H5.33285H5.26972H5.20692H5.14444H5.08229H5.02047H4.95898H4.89783H4.837H4.77651H4.71635H4.65653H4.59705H4.53791H4.47912H4.42066H4.36255H4.30478H4.24737H4.1903H4.13358H4.07721H4.02119H3.96553H3.91022H3.85527H3.80068H3.74645H3.69258H3.63908H3.58593H3.53316H3.48074H3.4287H3.37703H3.32573H3.2748H3.22424H3.17406H3.12426H3.07484H3.02579H2.97713H2.92885H2.88095H2.83343H2.78631H2.73957H2.69322H2.64726H2.6017H2.55653H2.51175H2.46737H2.42339H2.37981H2.33662H2.29384H2.25147H2.2095H2.16793H2.12678H2.08603H2.04569H2.00577H1.96626H1.92716H1.88848H1.85022H1.81237H1.77495H1.73795H1.70137H1.66522H1.6295H1.5942H1.55933H1.52489H1.49088H1.45731H1.42417H1.39147H1.3592H1.32737H1.29599H1.26504H1.23454H1.20448H1.17487H1.14571H1.117H1.08873H1.06092H1.03356H1.00665H1.0036V1.61493H76.0534V1.61946V1.6641V1.70999V1.75712V1.80549V1.8551V1.90595V1.95802V2.01131V2.06582V2.12154V2.17848V2.23661V2.29594V2.35647V2.41819V2.48109V2.54517V2.61043V2.67686V2.74445V2.8132V2.88311V2.95418V3.02638V3.09974V3.17422V3.24984V3.32659V3.40446V3.48345V3.56356V3.64477V3.72709V3.8105V3.89501V3.98061V4.0673V4.15507V4.24391V4.33382V4.4248V4.51685V4.60995V4.7041V4.79929V4.89554V4.99281V5.09113V5.19047V5.29083V5.39222V5.49461V5.59802V5.70244V5.80785V5.91426V6.02165V6.13004V6.23941V6.34975V6.46106V6.57334V6.68659V6.80079V6.91594V7.03205V7.14909V7.26708V7.38599V7.50584V7.62661V7.74831V7.87091V7.99443V8.11885V8.24418V8.3704V8.49751V8.6255V8.75438V8.88414V9.01477V9.14627V9.27863V9.41184V9.54592V9.68084V9.8166V9.9532V10.0906V10.2289V10.368V10.5079V10.6486V10.7902V10.9325V11.0757V11.2196V11.3644V11.5099V11.6562V11.8033V11.9511V12.0998V12.2492V12.3993V12.5502V12.7019V12.8543V13.0074V13.1613V13.3159V13.4712V13.6273V13.784V13.9415V14.0997V14.2586V14.4182V14.5784V14.7394V14.901V15.0634V15.2264V15.39V15.5544V15.7194V15.885V16.0513V16.2183V16.3859V16.5541V16.7229V16.8924V17.0625V17.2332V17.4046V17.5765V17.749V17.9222V18.0959V18.2702V18.4451V18.6206V18.7967V18.9733V19.1505V19.3282V19.5066V19.6854V19.8648V20.0448V20.2253V20.4063V20.5878V20.7699V20.9525V21.1356V21.3192V21.5033V21.6879V21.873V22.0586V22.2446V22.4312V22.6182V22.8057V22.9937V23.1821V23.371V23.5603V23.7501V23.9403V24.131V24.3221V24.5136V24.7056V24.8979V25.0907V25.2839V25.4775V25.6715V25.8658V26.0606V26.2558V26.4513V26.6472V26.8435V27.0402V27.2372V27.4346V27.6323V27.8304V28.0288V28.2275V28.4266V28.626V28.8258V29.0258V29.2262V29.4269V29.6278V29.8291V30.0307V30.2326V30.4347V30.6372V30.8399V31.0429V31.2461V31.4497V31.6534V31.8575V32.0617V32.2663V32.471V32.676V32.8812V33.0867V33.2923V33.4982V33.7043V33.9106V34.1171V34.3238V34.5307V34.7377V34.945V35.1524V35.36V35.5678V35.7757V35.9838V36.1921V36.4004V36.609V36.8177V37.0265V37.2354V37.4445V37.6537V37.863V38.0724V38.2819V38.4915V38.7012V38.911V39.1209V39.3309V39.541V39.7511V39.9613V40.1716V40.3819V40.5923V40.8027V41.0132V41.2237V41.4342V41.6448V41.8554V42.066V42.2766V42.4873V42.698V42.9086V43.1193V43.3299V43.5406V43.7512V43.9618V44.1724V44.3829V44.5934V44.8039V45.0143V45.2247V45.435V45.6452V45.8554V46.0656V46.2756V46.4856V46.6955V46.9053V47.115V47.3246V47.5341V47.7435V47.9528V48.162V48.371V48.58V48.7888V48.9974V49.206V49.4143V49.6226V49.8306V50.0386V50.2463V50.4539V50.6613V50.8686V51.0756V51.2825V51.4892V51.6956V51.9019V52.108V52.3139V52.5195V52.7249V52.9301V53.1351V53.3398V53.5443V53.7486V53.9526V54.1563V54.3598V54.5631V54.766V54.9687V55.1711V55.3733V55.5751V55.7767V55.9779V56.1789V56.3796V56.5799V56.7799V56.9796V57.179V57.3781V57.5768V57.7752V57.9732V58.1709V58.3683V58.5653V58.7619V58.9582V59.154V59.3495V59.5447V59.7394V59.9338V60.1277V60.3213V60.5144V60.7072V60.8995V61.0914V61.2829V61.474V61.6646V61.8548V62.0445V62.2338V62.4227V62.611V62.799V62.9864V63.1734V63.3599V63.546V63.7315V63.9166V64.1012V64.2852V64.4688V64.6518V64.8344V65.0164V65.1979V65.3789V65.5593V65.7392V65.9186V66.0974V66.2757V66.4534V66.6305V66.8071V66.9831V67.1586V67.3334V67.5077V67.6814V67.8545V68.027V68.1988V68.3701V68.5408V68.7108V68.8803V69.0491V69.2172V69.3848V69.5517V69.7179V69.8835V70.0484V70.2127V70.3763V70.5393V70.7016V70.8632V71.0241V71.1843V71.3438V71.5026V71.6608V71.8182V71.9749V72.1309V72.2862V72.4407V72.5945V72.7476V72.8999V73.0515V73.2024V73.3525V73.5018V73.6504V73.7981V73.9452V74.0914V74.2369V74.3815V74.5254V74.6685V74.8108V74.9523V75.0929V75.2328V75.3718V75.51V75.6474V75.7839V75.9196V76.0545V76.1885V76.3216V76.4539V76.5853V76.7159V76.8456V76.9744V77.1023V77.2293V77.3555V77.4807V77.6051V77.7285V77.8511V77.9727V78.0934V78.2132V78.332V78.4499V78.5669V78.6829V78.798V78.9121V79.0253V79.1375V79.2487V79.359V79.4682V79.5766V79.6839V79.7902V79.8955V79.9999V80.1032C76.0534 84.3364 74.823 87.2846 73.0329 89.3553C71.2324 91.438 68.8121 92.694 66.3391 93.4353C63.8662 94.1767 61.3795 94.3913 59.5008 94.4178C58.5639 94.4311 57.7843 94.3975 57.241 94.3608C56.9696 94.3425 56.7575 94.3234 56.6149 94.3091C56.5436 94.302 56.4896 94.2961 56.4543 94.292L56.4155 94.2874L56.4068 94.2863L56.4055 94.2862Z" stroke="#FFF500" stroke-width="1.47156"/>
</svg>
